!!!COM: Scarlatti, Domenico
!!!CDT: 1685-1757
!!!OTL: Sonata in B minor, L.347, K.227
!!!SCT: K. 227
!!!SCT: L. 347
!!!OMD: Moderato ([quarter]=92)
**kern	**kern	**dynam
*staff2	*staff1	*staff1/2
*Icemba	*Icemba	*
*I"L.347 (K.227)	*I"L.347 (K.227)	*
*>[A,A,B,B]	*>[A,A,B,B]	*>[A,A,B,B]
*>norep[A,B]	*>norep[A,B]	*>norep[A,B]
*>A	*>A	*>A
*clefF4	*clefG2	*
*k[f#c#]	*k[f#c#]	*
*b:	*b:	*
*M2/4	*M2/4	*
*MM92	*MM92	*
=1-	=1-	=1-
2r	8r	.
.	(8ff#L	p
.	8dd	.
.	8bJ)	.
=2	=2	=2
.	(32ff#qq	.
2r	(8.ff#Lt)	.
.	32eeLL	.
.	32ff#JJJ	<
.	8ggL	.
.	8ff#J	.
=3	=3	=3
8r	4aa#	[ >
*clefG2	*	*
(8f#L	.	.
8d	4bb)	]
8BJ)	.	.
=4	=4	=4
(32f#qq	.	.
(<8.f#tL)	8r	.
.	(8ff#L	.
32eLL	.	.
32f#JJJ	.	.
8gL	8ee	.
8eJ	8ggJ)	.
=5	=5	=5
.	(16aanqq	.
4a#	(8ggL)	.
.	16ff#L	.
.	16eeJJ	.
4b/)	8ddL)	.
.	8gg'J	.
!!LO:LB:g=z
=6	=6	=6
.	(16aanqq	.
(4a#	(8ggL)	.
.	16ff#L	.
.	16eeJJ	.
16bLL)	8ddL)	.
(16b	.	.
16an	8ee'J	.
16gJJ	.	.
=7	=7	=7
16f#LL)	8ff#'L	.
(<16f#	.	.
16e	(8b	.
16dJJ	.	.
*clefF4	*	*
16c#LL)	8a#	.
(16c#	.	.
16B	8cc#J	.
16A#JJ	.	.
=8	=8	=8
16BLL)	8ddL	<
(16B	.	.
16An	8eeJ	.
16GJJ	.	.
4F#)	16ff#LL)	[
.	(16gg	.
.	16ee	.
.	16ddJJ	.
=9	=9	=9
(<4FF#	16cc#LL)	.
.	(16cc#	.
.	16b	.
.	16a#JJ	.
4F#	16bLL)	.
.	(16b	.
.	16an	.
.	16gJJ	.
!!LO:LB:g=z
=10	=10	=10
4FF#	16f#LL)	.
.	(16f#	.
.	16e	.
.	16dJJ	.
4F#	16c#LL)	.
.	(16c#	.
.	16B	.
.	16A#JJ	.
=11	=11	=11
4FF#)	16BLL)	.
.	(16B	.
.	16An	.
.	16GJJ	.
*	*clefF4	*clefF4
4r	16F#LL	.
.	16B	.
.	16D	.
.	16EJJ	.
=12	=12	=12
8r	4F# 4A#)	.
*clefG2	*	*
(<8cc#L	.	.
8a#	8r	.
*	*clefG2	*clefG2
8f#J	8ff#~	.
=13	=13	=13
4b	16ff#'LL	.
.	(16ff#	.
.	16ee	.
.	16dd#JJ	.
4an	16ff#LL)	<
.	(16ff#	.
.	16ee	.
.	16dd#JJ	.
!!LO:LB:g=z
=14	=14	=14
16gLL)	4bb)	[
(16g	.	.
16f#	.	.
16eJJ	.	.
16gLL)	(4bb	.
(16g	.	.
16f#	.	.
16eJJ	.	.
=15	=15	=15
(4a)	16eeLL)	.
.	(16ee	.
.	16dd	.
.	16cc#JJ	<
4g	16eeLL)	.
.	(16ee	.
.	16dd	.
.	16cc#JJ	.
=16	=16	=16
16f#LL)	4aa)	[
(16f#	.	.
16e	.	.
16dJJ	.	.
16f#LL)	(4aa	.
(16f#	.	.
16e	.	.
16dJJ	.	.
=17	=17	=17
4g	16bLL)	<
.	(16b	.
.	16cc#	.
.	16ddJJ	.
4e	16cc#LL)	.
.	(16cc#	.
.	16dd	.
.	16eeJJ	.
!!LO:LB:g=z
=18	=18	=18
4f#	16ddLL)	.
.	(16dd	.
.	16ee	.
.	16ff#JJ	.
4c#	16eeLL)	.
.	(16ee	.
.	16ff#	.
.	16ggJJ	.
=19	=19	=19
16dLL)	4ff#	mf
(16d	.	.
16e	.	.
16f#JJ	.	.
16eLL)	4gg	.
(16e	.	.
16f#	.	.
16gJJ	.	.
=20	=20	=20
16f#LL)	4aa	.
(16f#	.	.
16g	.	.
16aJJ	.	.
16gLL)	8bb'L)	.
(16g	.	.
16a	8dd'J	.
16bJJ	.	.
=21	=21	=21
4a)	(16cc#LL	.
.	16aa	.
.	16ee	.
.	16ff#JJ	.
4r	16cc#LL	.
.	16dd	.
.	16a	.
.	16bJJ	.
!!LO:LB:g=z
=22	=22	=22
16r	4.cc#)	.
(16aLL	.	.
16e	.	.
16f#JJ	.	.
*clefF4	*	*
16c#LL	.	.
16d	.	.
16A	8dd'	.
16BJJ	.	.
=23	=23	=23
4.c#)	(16eeLL	.
.	16dd	.
.	16cc#	.
.	16bJJ	.
.	16aLL	.
.	16g	.
8A'	16f#	.
.	16eJJ	.
=24	=24	=24
4D 4d	8f#'L)	.
.	8dd'J	.
!	!LO:TUP:r=8	!
8r	(24ff#LL	p
.	24ee	.
.	24dd	.
8F#' 8d'	24cc#	.
.	24b	.
.	24aJJ	.
=25	=25	=25
4.G 4.d	8bL	.
.	8aaJ)	.
*	*Xtuplet	*
.	(24ggLL	.
.	24ff#	.
.	24ee	.
8G' 8e'	24dd	.
.	24cc#	.
.	24bJJ	.
!!LO:LB:g=z
=26	=26	=26
4.F# 4.e	8aL	.
.	8ggJ)	.
.	(24ff#LL	.
.	24ee	.
.	24dd	.
8F#' 8d'	24cc#	.
.	24b	.
.	24aJJ	.
=27	=27	=27
4.E 4.d	8gL	.
.	8ff#J)	<
.	(24eeLL	.
.	24dd	.
.	24cc#	.
8E' 8c#'	24b	.
.	24a	.
.	24gJJ	[[
=28	=28	=28
8D' 8d'L	4f#)	mf
8d'J	.	.
*Xtuplet	*	*
(24f#LL	8r	.
24e	.	.
24d	.	.
24c#	8ff#'	.
24B	.	.
24AJJ	.	.
=29	=29	=29
8GL	4b	.
8f#J)	.	.
(24eLL	8r	.
24d	.	.
24c#	.	.
24B	8gg'	.
24A	.	.
24GJJ	.	.
!!LO:LB:g=z
=30	=30	=30
8F#L	4a	.
8eJ)	.	.
(24dLL	8r	.
24c#	.	.
24B	.	.
24A	8ff#'	.
24G	.	.
24F#JJ	.	.
=31	=31	=31
8EL	4g	.
8dJ)	.	.
(24c#LL	8r	.
24B	.	.
24A	.	.
24G	8ee'	.
24F#	.	.
24EJJ	.	.
=32	=32	=32
8D)	(8f#L	.
8r	8ddJ)	.
8F#~	24ff#LL	.
.	24ee	.
.	24ddJ	.
8r	8dd'J	.
=33	=33	=33
8G~	(24bLL	.
.	24cc#	.
.	24ddJ	.
8r	8ff#'J)	.
8A~	(24aaLL	.
.	24gg	.
.	24ff#J	.
8r	8ff#'J)	.
!!LO:LB:g=z
=34	=34	=34
8B~	(24ddLL	.
.	24ee	.
.	24ff#J	.
8r	8ddd'J)	.
8c#'L	8aa'L	.
8A'J	8gg'J	.
=35	=35	=35
(8dL	(24ff#LL	.
.	24ee	.
.	24ff#	.
.	(8aaq	.
8GJ	24gg)	.
.	24ff#	.
.	24eeJJ	.
8A'L>)	8ff#'L)	.
8AA'J	8ee'J	.
=36	=36	=36
8D~	8dd'^L	.
8r	8dd'J	p
8F#~	(24ff#LL	.
.	24ee	.
.	24ddJ	.
8r	8dd'J)	.
=37	=37	=37
8G~	(24bLL	.
.	24cc#	.
.	24ddJ	.
8r	8ff#'J)	.
8A~	(24aaLL	.
.	24gg	.
.	24ff#J	.
8r	8ff#'J)	.
!!LO:LB:g=z
=38	=38	=38
8B~	(24ddLL	.
.	24ee	.
.	24ff#J	.
8r	8ddd'J)	.
8c#'L	8aa'L	.
8A'J	8gg'J	.
=39	=39	=39
(8dL	(24ff#LL	.
.	24ee	.
.	24ff#	.
.	(8aaq	.
8GJ	24gg)	.
.	24ff#	.
.	24eeJJ	.
8A'L)	8ff#'L)	.
8AA'J	8ee'J	.
=40	=40	=40
4DD 4D	(8ddL	.
.	8ff#J)	.
*clefG2	*	*
8d 8ccnL	(24aaLL	<
.	24gg	.
.	24ff#J	.
8d 8ccJ	8ff#'J)	.
=41	=41	=41
8d 8ccnL	(24aaLL	.
.	24gg	.
.	24ff#J	.
8d 8cc	8ff#'J)	.
8d 8cc	(24aaLL	.
.	24gg	.
.	24ff#J	.
8d 8ccJ	8ff#'J)	.
!!LO:LB:g=z
=42	=42	=42
8e 8bL	24dd (24bbLL	.
.	24aa	.
.	24gg#J	.
8e 8b	8gg#'J)	.
8e 8b	24dd (24bbLL	.
.	24aa	.
.	24gg#J	.
8d 8bJ	8gg#'J)	.
=43	=43	=43
8d 8bL	8dd 8gg# (8bbL	mf
8d 8b	8ccc#)	.
8d 8b	8ddd'	.
8d 8bJ	8ccc#'J	.
=44	=44	=44
8d 8bL	8bb'L	.
8d 8b	8aa'	.
8d 8b	8gg#'	.
8d 8bJ	8ff#'J	.
*clefF4	*	*
=45	=45	=45
(4c#	8gg# (8bbL	.
.	8ff# 8aa)	.
4C#)	8ff# (8aa	.
.	8ee# 8gg#J)	.
!!LO:LB:g=z
=46	=46	=46
.	(<ee#qq/ 8gg#qq/	.
4FF# 4F#	4.ff#)	.
8A'L	.	.
8f#'J	8cc#' 8aa'	p
=47	=47	=47
*	*^	*
(8BL	(24gg#LL	4dd	<
.	24ff#	.	.
.	24ee#J	.	.
8g#J)	8ee#'J)	.	.
(8AL	(8ff#L	4cc#	.
8f#J)	8aaJ)	.	.
=48	=48	=48	=48
(8BL	(24gg#LL	4dd	.
.	24ff#	.	.
.	24ee#J	.	.
8g#J)	8ee#'J)	.	.
(8AL	(8ff#L	4cc#	.
8f#J)	8ccc#J)	.	.
=49	=49	=49	=49
(8G#L	(24bbLL	4ee#	.
.	24aa	.	.
.	24gg#J	.	.
8e#J)	8gg#'J)	.	.
(8F#L	(8aaL	4ff#	.
8f#J)	8ccc#J)	.	.
!!LO:LB:g=z
=50	=50	=50	=50
(8G#L	(24bbLL	4ee#	.
.	24aa	.	.
.	24gg#J	.	.
8e#J)	8gg#'J)	.	.
(8F#L	(8aaL	4ff#	.
8f#J)	8ccc#J)	.	.
*	*v	*v	*
=51	=51	=51
(8BL	(24gg#LL	f
.	24aa	.
.	24bbJ	.
8dJ)	8bb'J)	.
(8c#L	(24aaLL	.
.	24gg#	.
.	24ff#	.
8C#J)	24gg#	.
.	24ff#	.
.	24ee#JJ)	.
=52	=52	=52
.	(8ee#q	.
4FF# 4F#	4ff#)	.
8A'L	8r	p
8f#'J	8cc#' 8aa'	.
=53	=53	=53
*	*^	*
(8BL	(24gg#LL	4dd	<
.	24ff#	.	.
.	24ee#J	.	.
8g#J)	8ee#'J)	.	.
(8AL	(8ff#L	4cc#	.
8f#J)	8aaJ)	.	.
!!LO:LB:g=z
=54	=54	=54	=54
(8BL	(24gg#LL	4dd	.
.	24ff#	.	.
.	24ee#J	.	.
8g#J)	8ee#'J)	.	.
(8AL	(8ff#L	4cc#	.
8f#J)	8ccc#J)	.	.
=55	=55	=55	=55
(8G#L	(24bbLL	4ee#	.
.	24aa	.	.
.	24gg#J	.	.
8e#J)	8gg#'J)	.	.
(8F#L	(8aaL	4ff#	.
8f#J)	8ccc#J)	.	.
=56	=56	=56	=56
(8G#L	(24bbLL	4ee#	.
.	24aa	.	.
.	24gg#J	.	.
8e#J)	8gg#'J)	.	.
(8F#L	(8aaL	4ff#	.
8f#J)	8ccc#J)	.	.
*	*v	*v	*
=57	=57	=57
(8BL	(24gg#LL	f
.	24aa	.
.	24bbJ	.
8dJ)	8bb'J)	.
(8c#L	(24aaLL	.
.	24gg#	.
.	24ff#	.
8C#J)	24gg#	.
.	24ff#	.
.	24ee#JJ	.
!!LO:LB:g=z
=58	=58	=58
4FF# 4F#	8ff#L	.
.	8dddJ)	.
8r	(24ccc#LL	p
.	24bb	.
.	24aa	.
8A'	24gg#	.
.	24ff#	.
.	24eenJJ	.
=59	=59	=59
(8BL	8ddL	.
8A)	8ccc#J)	.
8G#'	(24bbLL	.
.	24aa	.
.	24gg#	.
8E'J	24ff#	.
.	24ee	.
.	24ddJJ	.
=60	=60	=60
(8AL	8cc#L	.
8G#)	8bbJ)	.
8F#'	(24aaLL	.
.	24gg#	.
.	24ff#	.
8D'J	24ee	.
.	24dd	.
.	24cc#JJ	.
=61	=61	=61
(8G#L	8bL	.
8F#)	8aaJ)	.
8E#'	(24gg#LL	<
.	24ff#	.
.	24ee#	.
8C#'J	24dd	.
.	24cc#	.
.	24bJJ	[
!!LO:LB:g=z
=62	=62	=62
8F#'L	24aLL	mf
.	24b	.
.	24cc#	.
(8BJ	24b	.
.	24cc#	.
.	24ddJJ	.
8c#'L)	24cc#LL	.
.	24b	.
.	24a	.
8C#'J	24g#	.
.	24f#	.
.	24e#JJ	.
=63	=63	=63
(8dL	24f#LL	.
.	24g#	.
.	24a	.
8B	24b	.
.	24cc#	.
.	24ddJJ	.
8c#)	24cc#LL	.
.	24b	.
.	24a	.
8C#'J	24g#	.
.	24f#	.
.	24e#JJ	.
=64	=64	=64
(8dL	24f#LL	.
.	24g#	.
.	24a	.
8B	24b	.
.	24cc#	.
.	24ddJJ	.
8c#)	24cc#LL	.
.	24b	.
.	24a	.
8C#'J	24g#	.
.	24f#	.
.	24e#JJ	.
!!LO:LB:g=z
=65	=65	=65
(24F#LL	4f#)	p
24G#	.	.
24A	.	.
24B	.	.
24c#	.	.
24dJJ	.	.
24c#LL	8g#'L	.
24B	.	.
24A	.	.
24G#	8b'J	.
24F#	.	.
24E#JJ	.	.
=66	=66	=66
24F#LL	(8aL	.
24G#	.	.
24A	.	.
24B	8f#	.
24c#	.	.
24dJJ	.	.
24c#LL	8g#')	.
24B	.	.
24A	.	.
24G#	8b'J	.
24F#	.	.
24E#JJ	.	.
=67	=67	=67
24F#LL	(8aL	.
24G#	.	.
24A	.	.
24B	8f#	.
24c#	.	.
24dJJ	.	.
24c#LL	8g#')	.
24B	.	.
24A	.	.
24G#	8b'J	.
24F#	.	.
24E#JJ	.	.
!!LO:LB:g=z
=68	=68	=68
8F#L)	(<24f#LL	<
.	24g#	.
.	24a	.
(8BJ	24b	.
.	24cc#	.
.	24ddJJ	.
8c#'L)	24cc#LL	.
.	24b	.
.	24a	.
8C#'J	24g#	.
.	24f#	.
.	24e#JJ	.
=69	=69	=69
8F#'L	24f#LL	.
.	24g#	.
.	24a	.
(8BJ	24b	.
.	24cc#	.
.	24ddJJ	.
8c#'L)	8cc#'L)	.
8C#'J	8g#' 8ee#'J	.
=70	=70	=70
.	(<ee#qq/ g#qq/	.
4FF# 4F#	4f# 4ff#)	f
4r	4r	.
!!LO:LB:g=z
=71:|!	=71:|!	=71:|!
*>B	*>B	*>B
*M3/8	*M3/8	*M3/8
*MM138	*MM138	*MM138
!!!OMD: Vivo ([quarter-dot]=92)
4.r	16ff#'LL	f
.	16ff#'	.
.	16ff#'	.
.	16ff#'	.
.	16ff#'	.
.	16ff#'JJ	.
=72	=72	=72
4.r	(16ggLL	.
.	16ff#	.
.	16ee	.
.	16dd	.
.	16cc#	.
.	16bJJ	.
=73	=73	=73
16f#'LL	4a#)	.
16f#'	.	.
16f#'	.	.
16f#'	.	.
16f#'	8a#'	.
16f#'JJ	.	.
=74	=74	=74
(16gLL	4b/	.
16f#	.	.
16e	.	.
16d	.	.
16c#	8b'/	.
16BJJ	.	.
=75	=75	=75
8A#L)	(16cc#LL	.
.	16dd	.
8F#'	16ee	.
.	16cc#	.
8A#'J	16ff#	.
.	16eeJJ	.
=76	=76	=76
(8BL	16ddLL	.
.	16ff#	.
8G)	16ee	.
.	16dd	.
8E'J	16cc#	.
.	16bJJ	.
!!LO:LB:g=z
=77	=77	=77
8F#'L	16a#LL)	.
.	(16gg	.
8G#'	16ff#	.
.	16ee	.
8A#'J	16dd	.
.	16cc#JJ	.
=78	=78	=78
*^	*	*
4B	(8BBL	16ddLL<	.
.	.	16cc#	.
.	8C#	16b	.
.	.	16an	.
8rc	8D'J)	16g	.
.	.	16f#JJ	.
*v	*v	*	*
=79	=79	=79
8E'L	16gLL)	.
.	(16ff#	.
8F#'	16ee	.
.	16dd	.
8G'J	16cc#	.
.	16bJJ	.
=80	=80	=80
*^	*	*
4A	8AAL	16cc#LL	.
.	.	16b	.
.	8BB	16a	.
.	.	16g	.
8rc	8C#'J	16f#	.
.	.	16eJJ	.
*v	*v	*	*
=81	=81	=81
8D'L	16f#LL	.
.	(16ee)	.
8E'	16dd	.
.	16cc#	.
8F#'J	16b	.
.	16aJJ	.
=82	=82	=82
8G'L	16bLL	.
.	16a	.
8A'	16g	.
.	16f#	.
8B'J	16e	.
.	16dJJ	.
!!LO:LB:g=z
=83	=83	=83
(16AA'LL	8c#'L)	.
16A	.	.
16C#'	8e'	p
16A	.	.
16AA'	8a'J	.
16AJJ	.	.
=84	=84	=84
16D'LL	8f#'L	.
16A	.	.
16F#'	8dd'	.
16A	.	.
16D'	([8ff#^J	.
16AJJ	.	.
=85	=85	=85
16AA'LL	8ff#L]	.
16A	.	.
16C#'	8ee)	.
16A	.	.
16AA'	8gJ	.
16AJJ	.	.
=86	=86	=86
16D'LL	8f#'L	.
16A	.	.
16F#'	8dd'	.
16A	.	.
16D'	([8ff#^J	.
16AJJ	.	.
=87	=87	=87
16AA'LL	8ff#L]	.
16A	.	.
16C#'	8ee)	.
16A	.	.
16AA'	8g'J	.
16AJJ	.	.
=88	=88	=88
16D'LL	8f#'L	.
16A	.	.
16F#'	8a'	.
16A	.	.
16Cn'^	([8ccnJ	.
16AJJ	.	.
!!LO:LB:g=z
=89	=89	=89
16BB'LL)	8ccnL]	.
16B	.	.
16D#'	8b)	.
16B	.	.
16BB'	8f#'J	.
16BJJ	.	.
=90	=90	=90
16E'LL	8g'L	<
16B	.	.
16G'	8ee'	.
16B	.	.
16E'	([8gg^J	.
16BJJ	.	.
=91	=91	=91
16BB'LL	8ggL]	.
16B	.	.
16D#'	8ff#)	.
16B	.	.
16BB'	8a'J	.
16BJJ	.	.
=92	=92	=92
16E'LL	8g'L	.
16B	.	.
16G'	8ee'	.
16B	.	.
16E'	([8gg^J	.
16BJJ	.	.
=93	=93	=93
16BB'LL	8ggL]	.
16B	.	.
16D#'	8ff#)	.
16B	.	.
16BB'	8a'J	.
16BJJ	.	.
=94	=94	=94
16E'LL	8g'L	.
16B	.	.
16G'	8b'	.
16B	.	.
16Dn'^	([8ddn^J	.
16BJJ	.	.
!!LO:LB:g=z
=95	=95	=95
(16C#'LL	8ddL]	.
16c#	.	.
16E#'	8cc#)	.
16c#	.	.
16C#'	8g#'J	.
16c#JJ	.	.
=96	=96	=96
16F#'LL	8a'L	.
16c#	.	.
16A'	8ff#'	.
16c#	.	.
16F#'	([8aa^J	.
16c#JJ	.	.
=97	=97	=97
16C#'LL	8aaL]	.
16c#	.	.
16E#'	8gg#)	.
16c#	.	.
16C#'	8b'J	.
16c#JJ	.	.
=98	=98	=98
16F#'LL	8a'L	.
16c#	.	.
16A'	8ff#'	.
16c#	.	.
16F#'	([8aa^J	.
16c#JJ	.	.
=99	=99	=99
16C#'LL	8aaL]	.
16c#	.	.
16E#'	8gg#)	.
16c#	.	.
16C#'	8b'J	.
16c#JJ)	.	.
=100	=100	=100
(16F#'LL	8a#'L	.
16f#	.	.
16A#'	8cc#'	.
16f#	.	.
16F#'	8ff#'J	.
16f#JJ	.	.
!!LO:LB:g=z
=101	=101	=101
16B'LL	8dd'L	f
16f#	.	.
16d'	8bb'	.
16f#	.	.
16B'	([8ddd^J	.
16f#JJ	.	.
=102	=102	=102
16F#'LL	8dddL]	.
16f#	.	.
16A#'	8ccc#)	.
16f#	.	.
16F#'	8ee'J	.
16f#JJ	.	.
=103	=103	=103
16B'LL	8dd'L	.
16f#	.	.
16d'	8bb'	.
16f#	.	.
16B'	([8ddd^J	.
16f#JJ	.	.
=104	=104	=104
16F#'LL	8dddL]	.
16f#	.	.
16A#'	8ccc#)	.
16f#	.	.
16F#'	8ee'J	.
16f#JJ	.	.
=105	=105	=105
16B'LL	8dd'L	.
16f#	.	.
16d'	8ff#'	.
16f#	.	.
16B'	8bb'J	.
(16dJJ)	.	.
=106	=106	=106
16E'LL	(8ggL	>
16e	.	.
16c#	8ee)	.
16e	.	.
16A	8aa'J	.
16c#JJ)	.	.
!!LO:LB:g=z
=107	=107	=107
(16D'LL	(8ff#L	.
16d	.	.
16B	8dd)	.
16d	.	.
16G	8gg'J	.
16BJJ)	.	.
=108	=108	=108
(16C#'LL	(8eeL	.
16c#	.	.
16A#	8cc#)	.
16c#	.	.
16F#	8ff#'J	.
16A#JJ)	.	.
=109	=109	=109
(16BB'LL	(8ddL	.
16B	.	.
16G	8gg)	.
16B	.	.
16E	8ee'J	.
16GJJ)	.	.
=110	=110	=110
(16AA'LL	(8cc#L	.
16A	.	.
16F#	8ff#)	.
16A	.	.
16D	8dd'J	.
16F#JJ)	.	.
=111	=111	=111
(16GG'LL	(8bL	.
16G	.	.
16E	8ee)	.
16G	.	.
16C#	8cc#'J	.
16EJJ)	.	.
=112	=112	=112
(<16FF#'LL	(8a#L	p
16F#	.	.
16AA#'	8cc#)	.
16F#	.	.
16FF#'	8c#'J	.
16F#JJ	.	.
!!LO:LB:g=z
=113	=113	=113
16BB'LL>	(8dL	.
16F#	.	.
16D'	8b)	.
16F#	.	.
16BB'	8e#i'J	.
16F#JJ	.	.
=114	=114	=114
16FF#'LL	(8f#L	<
16F#	.	.
16AA#'	8cc#)	.
16F#	.	.
16FF#'	8c#'J	.
16F#JJ	.	.
=115	=115	=115
16BB'LL>	(8dL	.
16F#	.	.
16D'	8b)	.
16F#	.	.
16BB'	8e#i'J	.
16F#JJ	.	.
=116	=116	=116
*	*^	*
16FF#LL	8f#L	4.f#	f
16F#	.	.	.
16EE	8a#' 8cc#'	.	.
16E	.	.	.
16D	8b' 8dd'J	.	.
16BJJ)	.	.	.
*	*v	*v	*
=117	=117	=117
*^	*	*
*	*	*tuplet	*
8ryy	8E' 8B'	(24cc#LL	.
.	.	24dd	.
.	.	24eeJJ	.
(8B 8dL	4F#	16ddLL	.
.	.	16b	.
8c#J)	.	16cc#	.
.	.	16a#JJ	.
*v	*v	*	*
=118	=118	=118
(16BBLL>	8dd'L)	>
16B	.	.
16AA	8cc#'	.
16A	.	.
16GG	8b'J	.
16GJJ	.	]]
!!LO:LB:g=z
=119	=119	=119
16FF#'LL	(8a#L	p
16F#	.	.
16AA#'	8cc#)	.
16F#	.	.
16FF#'	8c#'J	.
16F#JJ	.	.
=120	=120	=120
16BB'LL>	(8dL	.
16F#	.	.
16D'	8b)	.
16F#	.	.
16BB'	8e#i'J	.
16F#JJ	.	.
=121	=121	=121
16FF#'LL	(8f#L	<
16F#	.	.
16AA#'	8cc#)	.
16F#	.	.
16FF#'	8c#'J	.
16F#JJ	.	.
=122	=122	=122
16BB'LL>	(8dL	.
16F#	.	.
16D'	8b)	.
16F#	.	.
16BB'	8e#i'J	.
16F#JJ	.	.
=123	=123	=123
*	*^	*
16FF#LL	8f#L	4.f#	f
16F#	.	.	.
16EE	8a#' 8cc#'	.	.
16E	.	.	.
16D	8b' 8dd'J	.	.
16BJJ)	.	.	.
*	*v	*v	*
=124	=124	=124
*^	*	*
8ryy	8E' 8B'	(24cc#LL	.
.	.	24dd	.
.	.	24eeJJ	.
(8B 8dL	4F#	16ddLL	.
.	.	16b	.
8c#J)	.	16cc#	.
.	.	16a#JJ	.
!!LO:LB:g=z
=125	=125	=125	=125
[4.B	(8BBL	8b)	.
.	8C#	[4b^ [4bb^	.
.	8DJ)	.	.
=126	=126	=126	=126
*	*	*^	*
4.B]	4E	8bbL]	4.b]	.
.	.	(8aaq	.	.
.	.	(8gg)	.	.
.	8F#	8ff#J)	.	.
*	*	*v	*v	*
=127	=127	=127	=127
.	.	(<8eeq	.
4.B	4G	8b) (8ddL	.
.	.	8cc#)	.
.	8D'	[8b^ [8bb^J	.
=128	=128	=128	=128
*	*	*^	*
4.B	4E	8bbL]	4.b]	.
.	.	(8aaq	.	.
.	.	(8gg)	.	.
.	8F#'	8ff#J)	.	.
*	*	*v	*v	*
=129	=129	=129	=129
.	.	(<8eeq	.
[4.B	4G	8b (8ddL)	.
.	.	8cc#)	.
.	8F#'	8b' 8dd'J	.
=130	=130	=130	=130
*	*	*^	*
*	*	*Xtuplet	*	*
8B]	8E	(24eeLL	4b	.
.	.	24dd	.	.
.	.	24cc#JJ	.	.
8B' 8d'L	4F#	8dd'L)	.	.
8c#' 8e'J	.	8cc#'J	8a#'	.
*	*	*v	*v	*
=131	=131	=131	=131
[4.B	(8BBL	8b'	.
.	8C#	[4b^ [4bb^	p
.	8DJ)	.	.
!!LO:LB:g=z
=132	=132	=132	=132
*	*	*^	*
4.B]	4E	8bbL]	4.b]	.
.	.	(8aaq	.	.
.	.	(8gg)	.	.
.	8F#'	8ff#J)	.	.
*	*	*v	*v	*
=133	=133	=133	=133
.	.	(<8eeq	.
4.B	4G	8b (8ddL)	.
.	.	8cc#)	.
.	8D'	[8b^ [8bb^J	<
=134	=134	=134	=134
*	*	*^	*
4.B	4E	8bbL]	4.b]	.
.	.	(8aaq	.	.
.	.	(8gg)	.	.
.	8F#'	8ff#J)	.	.
*	*	*v	*v	*
=135	=135	=135	=135
.	.	(<8eeq	.
[4.B	4G	8b (8ddL)	.
.	.	8cc#)	.
.	8F#'	8b' 8dd'J	.
=136	=136	=136	=136
*	*	*^	*
8B]	8E'	(24eeLL	4b	.
.	.	24dd	.	.
.	.	24cc#JJ	.	.
8B' 8d'L	4F#	8dd'L)	.	.
8c#' 8e'J	.	8cc#'J	8a#	.
*	*	*v	*v	*
=137	=137	=137	=137
4.B	(8BBL	(16bLL	f
.	.	16bb	.
.	8C#	16ff#	.
.	.	16dd	.
.	8DJ	16b	.
.	.	16ff#JJ	.
*v	*v	*	*
!!LO:LB:g=z
=138	=138	=138
8E'L)	16ggLL)	.
.	(16gg	.
8F#'	16ff#	.
.	16ee	.
8FF#'J	16dd	.
.	16cc#JJ)	.
=139	=139	=139
(8BBL	16r	mf
.	(16bLL	.
8C#	16f#	.
.	16d	.
8DJ	16B	.
.	16f#JJ	.
=140	=140	=140
8E'L)	16gLL)	.
.	(16g	.
8F#'	16f#	.
.	16e	.
8FF#'J	16d	.
.	16c#JJ	.
=141	=141	=141
8.BBL	8BL)	.
.	(8d	p
(<16BBL	.	.
16D	[8f#J	.
16F#JJ	.	.
=142	=142	=142
8.BL	16f#LL]	.
.	16d	.
.	16f#	.
16F#L	16b	.
16D	16dd	.
16BBJJ	16ff#JJ	.
=143	=143	=143
4.BBB)	4.bb)	.
==:|!	==:|!	==:|!
*-	*-	*-
!!!RDF**kern: > = above
!!!RDF**kern: < = below
!!!RDF**kern: i = editorial accidental, paren
!!!PTL: Domenico Scarlatti: Opere complete per clavicembalo
!!!PED: Longo, Alessandro
!!!PPR: Ricordi
!!!PPP: Milan
!!!PDT: 1906-1913
!!!ENC: Craig Stuart Sapp
!!!END: 2004/11/03
!!!EED: Craig Stuart Sapp
!!!EEV: 2021/06/15
